!!!SOCIAL_FUNCTION:	moccasin game songs
!!!PDT:	1932
!!!OTL: No_133_Moccasin_Game_Song_(b).krn
!!!REG: Wisconsin
!!!LANG: Non-Tone
!!!LING_GROUP: Algonquin
**kern
*staff1
=1-
*clefF4
*k[f#c#g#]
*M2/4
4r
12E\L
12E\
12c#\J
=2
4B\
8e\L
8B\J
=3
4A\
8E\L
8E\J
=4||
*M3/4
4E\
4E\
12B\L
12B\
12B\J
=5||
*M2/4
4A\
8E\L
8E\J
=6
4F#\
8E\L
8E\J
=7||
*M3/4
4E\
8E\
8r
12E\L
12E\
12E\J
=8||
*M2/4
4A\
8A\L
8E\J
=9
(4F#\
8E\L)
8E\J
=10||
*M3/4
4E\
8E\
8r
12E\L
12E\
12E\J
=11||
*M2/4
4e\
8e\L
8c#\J
=12
4B\
8A\L
8E\J
=13||
*M3/4
4F#\
4E\
12F#\L
12F#\
12F#\J
=14||
*M2/4
4A\
8A\L
8E\J
=15
(4F#\
8E\L)
8E\J
=16
4E\
4E\
==
*-
